app/images/icons/calendar.svg

<svg enable-background="new 0 0 56 60" height="60" viewBox="0 0 56 60" width="56" xmlns="http://www.w3.org/2000/svg"><g fill="#2196f3"><path d="m54.88 3.999h-6.972v-2.999c.003-.549-.44-.997-.99-1h-6.972c-.552.001-.998.45-.997 1.001v2.999h-21.898v-3c0-.551-.446-.999-.997-1h-6.97c-.551.001-.998.45-.997 1.001v2.999h-6.966c-.551.001-.997.449-.997 1v53.999c0 .552.445.999.997 1.001h53.759c.551-.002.996-.449.996-1.001v-53.999c0-.551-.447-1.001-.996-1.001zm-13.938 3.998h4.979v-5.994h-4.979zm-30.862 0h4.977v-5.994h-4.977zm-7.962-1.995h5.968v2.998c0 .551.446.999.997 1h6.971c.551-.001.998-.45.997-1.001v-2.999h21.898v3c0 .551.446.999.997 1h6.972c.548 0 .99-.449.99-1.001v-2.999h5.975v9h-51.765zm0 51.997h51.765v-40.996h-51.765z"/><path d="m35.965 22.997h-26.881v29.005h37.835v-29.005zm-6.971 9.005h6.971v-7.002h-6.971zm0 9h6.971v-7.003h-6.971v7.001zm-8.959 0h6.971v-7.003h-6.97v7.001zm0-9h6.971v-7.002h-6.97zm-8.959 0h6.966v-7.002h-6.966zm0 9h6.966v-7.003h-6.966v7.001zm0 8.998h6.966v-7.002h-6.966zm8.96 0h6.97v-7.002h-6.97zm8.958 0h6.971v-7.002h-6.971zm8.959 0h6.971v-7.002h-6.971zm0-8.999h6.971v-7.001h-6.971zm0-8.998h6.971v-7.003h-6.971z"/></g></svg>

<?xml version="1.0" encoding="utf-8"?>
<!-- Generator: Adobe Illustrator 16.0.0, SVG Export Plug-In . SVG Version: 6.00 Build 0)  -->
<!DOCTYPE svg PUBLIC "-//W3C//DTD SVG 1.1//EN" "http://www.w3.org/Graphics/SVG/1.1/DTD/svg11.dtd">
<svg version="1.1" id="Layer_1" xmlns="http://www.w3.org/2000/svg" xmlns:xlink="http://www.w3.org/1999/xlink" x="0px" y="0px"
	 width="56px" height="60px" viewBox="0 0 56 60" enable-background="new 0 0 56 60" xml:space="preserve">
<g>
	<path fill="#2196F3" d="M54.88,3.999h-6.972V1c0.003-0.549-0.44-0.997-0.99-1l0,0h-6.972c-0.552,0.001-0.998,0.45-0.997,1.001V4
		H17.051V1c0-0.551-0.446-0.999-0.997-1h-6.97C8.533,0.001,8.086,0.45,8.087,1.001V4H1.121C0.57,4.001,0.124,4.449,0.124,5v53.999
		c0,0.552,0.445,0.999,0.997,1.001H54.88c0.551-0.002,0.996-0.449,0.996-1.001V5C55.876,4.449,55.429,3.999,54.88,3.999z
		 M40.942,7.997h4.979V2.003h-4.979V7.997z M10.08,7.997h4.977V2.003H10.08V7.997z M2.118,6.002h5.968V9
		c0,0.551,0.446,0.999,0.997,1h6.971c0.551-0.001,0.998-0.45,0.997-1.001V6h21.898v3c0,0.551,0.446,0.999,0.997,1h6.972
		c0.548,0,0.99-0.449,0.99-1.001V6h5.975v9H2.118V6.002L2.118,6.002z M2.118,57.999h51.765V17.003H2.118V57.999L2.118,57.999z"/>
	<path fill="#2196F3" d="M35.965,22.997H9.084v29.005h37.835V22.997H35.965L35.965,22.997z M28.994,32.002h6.971V25h-6.971V32.002z
		 M28.994,41.002h6.971v-7.003h-6.971V41V41.002z M20.035,41.002h6.971v-7.003h-6.97V41L20.035,41.002z M20.035,32.002h6.971V25
		h-6.97L20.035,32.002L20.035,32.002z M11.076,32.002h6.966V25h-6.966V32.002z M11.076,41.002h6.966v-7.003h-6.966V41V41.002z
		 M11.076,50h6.966v-7.002h-6.966V50z M20.036,50h6.97v-7.002h-6.97V50z M28.994,50h6.971v-7.002h-6.971V50z M37.953,50h6.971
		v-7.002h-6.971V50z M37.953,41.001h6.971V34h-6.971V41.001L37.953,41.001z M37.953,32.003h6.971V25h-6.971V32.003L37.953,32.003z"
		/>
</g>
</svg>
